!!!!SEGMENT: pl-kk--kk-i-382--016-001_anonim-nro-5-alleluia-ave-maria.krn
!!!id: 18xx:1481
!!!COM: Anonim
!!!OTL: Nro 5 Alleluia Ave Maria
!!!PDT:
!!!SMS-siglum: PL-Kk
!!!SMS-shelfmark: Kk.I.382
!!!NIFC-rismID: 1001139099
!!!URL-scan: http://repozytorium.nifc.pl/skany/pl-kk-nut--i-382
!!!ONB-nifc: UWAGA: obsada: S (T 1), A (B 1), T 2, B 2; S (T 1): skan 0015; A (B 1): skan 0160; T 2: skan 0087; B 2: skan 0232
!!!SMS-variant:
!!!SMS-altvar:
**kern	**text	**dynam	**kern	**text	**kern	**text	**kern	**text
*part4	*part4	*part4	*part3	*part3	*part2	*part2	*part1	*part1
*staff4	*staff4	*	*staff3	*staff3	*staff2	*staff2	*staff1	*staff1
*I"Basso II	*	*	*I"Tenore II	*	*I"Alto vel Basso I	*	*I"Soprano vel Tenore I.	*
*I'B 2	*	*	*I'T 2	*	*I'A (B 1)	*	*I'S (T 1)	*
*clefF4	*	*	*clefC4	*	*clefC3	*	*clefC1	*
*k[]	*	*	*k[]	*	*k[]	*	*k[]	*
*M4/4	*	*	*M4/4	*	*M4/4	*	*M4/4	*
*met(c|)	*	*	*met(c|)	*	*met(C.)	*	*met(C.)	*
=1	=1	=1	=1	=1	=1	=1	=1	=1
*2\right	*	*	*2\right	*	*	*	*2\right	*
!	!	!	!	!	!LO:TX:b:t=6.	!	!	!
!	!	!	!	!	!LO:TX:t=P:problem:all\right:global	!	!	!
!LO:TX:a:t=P:problem:w źródle "Graduale." zapisane przed pierwszym taktem, na pięciolinii	!	!	!LO:TX:a:t=P:problem:w źródle "Graduale" zapisane przed pierwszym taktem, na pięciolinii	!	!LO:TX:a:t=P:problem:w źródle "[G]raduale" zapisane przed pierwszym taktem, na pięciolinii	!	!LO:TX:a:t=P:problem:w źródle "Graduale." zapisane przed pierwszym taktem, na pięciolinii	!
!LO:TX:a:i:t=Graduale.	!	!	!LO:TX:a:i:t=Graduale	!	!LO:TX:a:i:t=[G]raduale	!	!LO:TX:a:i:t=Graduale.	!
1c	Al-	.	1c	Al-	00r	.	1cc	Al-
=2	=2	=2	=2	=2	=2	=2	=2	=2
!LO:TX:t=P:problem:all\right:global	!	!	!LO:TX:t=P:problem:all\right:global	!	!	!	!LO:TX:t=P:problem:all\right:global	!
2B\	-le-	.	2B\	-le-	.	.	2b\	-le-
2c\	-lu-	.	2c\	-lu-	.	.	2cc\	-lu-
=3	=3	=3	=3	=3	=3	=3	=3	=3
2A\	-ia	.	2A\	-ia	.	.	2cc\	-ja
2A\	al-	.	2A\	al-	.	.	2cc\	al-
=4	=4	=4	=4	=4	=4	=4	=4	=4
2G\	-le-	.	2G/	-le-	.	.	2b\	-le-
2A\	-lu-	.	2A/	-lu-	.	.	2cc\	-lu-
=5	=5	=5	=5	=5	=5	=5	=5	=5
2F\	-ia	.	2c\	-ia	0r	.	2a\	-ia
2F\	al-	.	2c\	al-	.	.	2a\	al-
=6	=6	=6	=6	=6	=6	=6	=6	=6
2G\	-le-	.	2B\	-le-	.	.	2g\	-le-
2E\	-lu-	.	2c\	-lu-	.	.	2g\	-lu-
=7	=7	=7	=7	=7	=7	=7	=7	=7
2F\	-ia	.	2A\	-ia	1f	Al-	2f/	-ja
2D\	al-	.	2B\	al-	.	.	2r	.
!	!	!	!	!	!	!	!LO:LB:g=original	!
=8	=8	=8	=8	=8	=8	=8	=8	=8
*	*	*	*	*	*2\right	*	*	*
2C/	-le-	.	2.c\	-le-	2e\	-le-	2r	.
2F\	-lu-	.	.	.	2f\	-lu-	2a\	al-
.	.	.	4c\	-lu-	.	.	.	.
!LO:LB:g=original	!	!	!LO:LB:g=original	!	!	!	!	!
=9	=9	=9	=9	=9	=9	=9	=9	=9
2G\	-ia	.	2B\	-ia	2d\	-ia	2g\	-le-
2C/	al-	.	2c\	al-	2e\	al-	4a\	.
.	.	.	.	.	.	.	4g\	.
=10	=10	=10	=10	=10	=10	=10	=10	=10
2.D\	-le-	.	2.A\	-le-	2.d\	-le-	2g/	.
.	.	.	.	.	.	.	2f#X/	-lu-
4D\	-lu-	.	4A\	-lu-	4d\	-lu-	.	.
=11	=11	=11	=11	=11	=11	=11	=11	=11
2GG/	-ia	.	2B\	-ia	2d\	-ia	2g\	-ja
2r	.	.	2G/	al-	2g\	al-	2b\	al-
=12	=12	=12	=12	=12	=12	=12	=12	=12
1r	.	.	4A\	-le-	2g\	.	4cc\	-le-
.	.	.	8B\L	.	.	.	8dd\L	-lu-
!LO:TX:b:t=1.	!	!	!	!	!	!	!	!
.	.	.	8c\J	.	.	.	8ee\J	.
.	.	.	4d\	.	2f\	.	2dd\	-ja
.	.	.	4c\	.	.	.	.	.
=13	=13	=13	=13	=13	=13	=13	=13	=13
2r	.	.	4B\	.	2f\	.	2dd\	al-
.	.	.	4G\	.	.	.	.	.
2C/	al-	.	4c\	-lu-	2e\	.	[>2ccn\	.
.	.	.	4e\	-ia	.	.	.	.
!	!	!	!	!	!LO:LB:g=original	!	!	!
=14	=14	=14	=14	=14	=14	=14	=14	=14
4D\	.	.	1d	al-	4f\	-le-	2cc\]	.
8E\L	.	.	.	.	8g\L	.	.	.
8F\J	.	.	.	.	8a\J	.	.	.
4G\	-le-	.	.	.	2g\	.	[>2b-X\	.
4F\	.	.	.	.	.	.	.	.
=15	=15	=15	=15	=15	=15	=15	=15	=15
4E\	.	.	2.c\	-le-	2g\	.	2b-X\]	.
4C\	.	.	.	.	.	.	.	.
2F\	-lu-	.	.	.	4f\	.	4a\	-le-
.	.	.	4f\	-lu-	4a\	.	4dd\	-lu-
!	!	!	!	!	!	!	!LO:LB:g=original	!
=16	=16	=16	=16	=16	=16	=16	=16	=16
2F\	-ia	.	2d\	-ia	1g	-lu-	2bn\	-ja
2C/	al-	.	2e\	al-	.	.	2cc\	al-
=17	=17	=17	=17	=17	=17	=17	=17	=17
[>1G	-le-	.	2d\	.	1g	-ia	2b\	-le-
.	.	.	2e\	.	.	.	[>2cc\	.
!	!	!	!LO:LB:g=original	!	!	!	!	!
=18	=18	=18	=18	=18	=18	=18	=18	=18
1G]	-lu-	.	2.d\	-le-	2.g\	al-	2cc\]	.
.	.	.	.	.	.	.	2b\	-lu-
.	.	.	4d\	-lu-	4g\	-le-	.	.
=19	=19	=19	=19	=19	=19	=19	=19	=19
!LO:TX:t=P:problem:w źródle brak tego taktu; dodano, aby zgadzały się piony brzmieniowe	!	!	!LO:TX:t=P:problem:w źródle brak tego taktu; dodano, aby zgadzały się piony brzmieniowe	!	!	!	!LO:TX:t=P:problem:w źródle brak tego taktu; dodano, aby zgadzały się piony brzmieniowe	!
1ryy	.	.	1ryy	.	1g	-lu-	1ryy	.
=20	=20	=20	=20	=20	=20	=20	=20	=20
!	!	!	!	!	!LO:N:vis=0	!	!LO:N:vis=0	!
1C;>	-ia	.	1e	-ia.	1g	-ia	1cc	-ja
!LO:LB:g=original	!	!	!	!	!	!	!	!
==21	==21	==21	==21	==21	==21	==21	==21	==21
*M4/4	*	*	*M4/4	*	*M4/4	*	*M4/4	*
*met(c|)	*	*	*met(c|)	*	*met(C.)	*	*met(C.)	*
!LO:TX:a:i:t=solo.	!	!	!	!	!	!	!	!
!LO:TX:a:t=P:problem:w źródle "p." zapisane na pięciolinii	!	!	!	!	!	!	!	!
!	!	!LO:DY:rj	!	!	!	!	!	!
!	!	!LO:DY:b:t=p.	!	!	!	!	!	!
2c\	A-	p	2c\	A-	2c\	A-	1r	.
!	!	!	!	!	!	!	!LO:TX:b:t=1.	!
4c\	-ve	.	4c\	-ve	4c\	-ve	.	.
4c\	ma:	.	4c\	ma-	4c\	ma-	.	.
=22	=22	=22	=22	=22	=22	=22	=22	=22
2G\	A-	.	2g\	-ri-	2g\	-ri-	2g\	A-
4G\	-ve	.	4e\	-a	2e\	-a	4g\	-ve
4G\	ma-	.	4e\	ma-	.	.	4g\	ma-
!	!	!	!	!	!LO:LB:g=original	!	!	!
=23	=23	=23	=23	=23	=23	=23	=23	=23
2d\	-ri-	.	2d\	-ri-	(>2f\	gra-	2dd\	-ri-
2e\	-a	.	2e\	-a	2g\	.	2ee\	-a
!	!	!	!	!	!	!	!LO:LB:g=original	!
=24	=24	=24	=24	=24	=24	=24	=24	=24
2d\	gra-	.	2d\	gra-	2f#X\)	.	2dd\	gra-
4B\	-ti-	.	4B\	-ti-	4g\	-ti-	4b\	-ti-
4G\	-a	.	4G\	-a	4g\	-a	4g\	-a
=25	=25	=25	=25	=25	=25	=25	=25	=25
2c\	ple-	.	2c\	ple-	(>2e\	ple-	2cc\	ple-
2B\	.	.	2B\	.	2g\	.	2b\	.
=26	=26	=26	=26	=26	=26	=26	=26	=26
1A	.	.	1A	.	2g\	.	1a	.
.	.	.	.	.	2f#X\)	.	.	.
!	!	!	!LO:LB:g=original	!	!	!	!	!
=27	=27	=27	=27	=27	=27	=27	=27	=27
2G\	-na,	.	2G/	-na,	2g\	-na	2g\	-na
2r	.	.	2r	.	[>2fn\	Do-	4a\	Do-
.	.	.	.	.	.	.	4b\	.
!LO:LB:g=original	!	!	!	!	!	!	!	!
=28	=28	=28	=28	=28	=28	=28	=28	=28
!LO:TX:a:t=P:problem:w źródle "f." zapisane na pięciolinii	!	!	!	!	!	!	!	!
!	!	!LO:DY:rj	!	!	!	!	!	!
!	!	!LO:DY:b:t=f.	!	!	!	!	!	!
2C/	Do-	f	1r	.	2f\]	.	2cc\	.
!	!	!	!LO:TX:a:t=1.	!	!	!	!	!
4C/	-mi-	.	.	.	4e\	-mi-	4cc\	-mi-
4C/	-nus	.	.	.	4e\	-nus	4cc\	-nus
=29	=29	=29	=29	=29	=29	=29	=29	=29
(>2G\	te-	.	2G/	Do-	2d\	te-	2b\	te-
2E\)	.	.	4G/	-mi-	2e\	.	2cc\	.
.	.	.	4G/	-nus	.	.	.	.
=30	=30	=30	=30	=30	=30	=30	=30	=30
2D\	-cum	.	2d\	Do-	2f#X\	.	2dd\	.
2r	.	.	2e\	.	2g\	.	2b\	.
!	!	!	!	!	!LO:LB:g=original	!	!	!
=31	=31	=31	=31	=31	=31	=31	=31	=31
!LO:TX:a:t=P:problem:w źródle "p." zapisane na pięciolinii	!	!	!	!	!	!	!	!
!	!	!LO:DY:rj	!	!	!	!	!	!
!	!	!LO:DY:b:t=p.	!	!	!	!	!	!
2d\	Do-	p	2d\	.	2f#X\	.	2dd\	.
4B\	-mi-	.	4B\	-mi-	2g\	.	2g\	.
4G\	-nus	.	4G/	-nus	.	.	.	.
!	!	!	!	!	!	!	!LO:LB:g=original	!
=32	=32	=32	=32	=32	=32	=32	=32	=32
2c\	te-	.	2c\	te-	2e\	.	2g\	.
2B\	.	.	2B\	.	2g\	.	2dd\	.
=33	=33	=33	=33	=33	=33	=33	=33	=33
1A	.	.	1A	.	2g\	.	1cc	.
.	.	.	.	.	2f#X\	.	.	.
=34	=34	=34	=34	=34	=34	=34	=34	=34
2G\	-cum	.	2G/	-cum	2g\	-cum	2b\	-cum
!LO:TX:a:t=P:problem:w źródle "f." zapisane na pięciolinii	!	!	!	!	!	!	!	!
!	!	!LO:DY:rj	!	!	!	!	!	!
!	!	!LO:DY:b:t=f.	!	!	!	!	!	!
4G\	be-	f	4B\	be-	4g\	be-	4dd\	be-
4G\	-ne-	.	4B\	-ne-	4g\	-ne-	4dd\	-ne-
=35	=35	=35	=35	=35	=35	=35	=35	=35
2A\	-di-	.	2A/	-dic-	2fn\	-dic-	2cc\	-di-
2B\	-cta	.	2G/	-ta	2f\	-ta	2dd\	-cta
!	!	!	!LO:LB:g=original	!	!	!	!	!
=36	=36	=36	=36	=36	=36	=36	=36	=36
2c\	tu	.	2G/	tu	2e\	tu	2ee\	tu
2A\	in	.	2A/	in	2f#X\	in	2cc\	in
!LO:LB:g=original	!	!	!	!	!	!	!	!
=37	=37	=37	=37	=37	=37	=37	=37	=37
2G\	mu-	.	2d\	mu-	(>2g\	mu-	2b\	mu-
2C/	-li-	.	2e\	-li-	4a\)	.	(>4cc\	-li-
.	.	.	.	.	4g\	-li-	4b\)	.
=38	=38	=38	=38	=38	=38	=38	=38	=38
2.D\	-e-	.	2.d\	-e-	2.g\	-e-	2.a\	-e-
4D\	-ri-	.	4d\	-ri-	4f#X\	-ri-	4a\	-ri-
!	!	!	!	!	!LO:LB:g=original	!	!LO:LB:g=original	!
=39	=39	=39	=39	=39	=39	=39	=39	=39
2GG/	-bus	.	2d\	-bus	2g\	-bus	2b\	-bus
2C/	et	.	2e\	et	(>4g\	et	2cc\	et
.	.	.	.	.	4a\)	.	.	.
=40	=40	=40	=40	=40	=40	=40	=40	=40
4G\	be-	.	4Bn\	be-	4b\	be-	4dd\	be-
(>8F\L	-ne-	.	4c\	-ne-	(>8a\L	-ne-	4ee\	-ne-
8E\J)	.	.	.	.	8g\J)	.	.	.
4D\	-dic-	.	4d\	-dic-	4f\	-di-	4ff\	-di-
4E\	-tus	.	8c\L	-tus	4g\	-ctus	(>8ee\L	-ctus
.	.	.	8B\J	.	.	.	8dd\J)	.
=41	=41	=41	=41	=41	=41	=41	=41	=41
(>4F\	fru-	.	4A\	fru-	4a\	be-	(>4cc\	fru-
8E\L	.	.	4B\	.	(>8g\L	-ne-	4dd\)	.
8D\J)	.	.	.	.	8f\J)	.	.	.
(>4C/	-ctus	.	4c\	.	4e\	-di-	(>4ee\	-ctus
4D/)	.	.	(>8B\L	-ctus	4f\	-ctus	8dd\L	.
.	.	.	8A\J)	.	.	.	8cc\J)	.
=42	=42	=42	=42	=42	=42	=42	=42	=42
4E\	ven-	.	4G/	ven-	(>4g\	fru-	(>4b\	ven-
8D/L	.	.	4A/	.	8fn\L	.	4cc\)	.
8C/J	.	.	.	.	8e\J)	.	.	.
4BB/	.	.	4B/	.	4d\	-ctus	(>4dd\	-tris
4C/	.	.	8A/L	.	4e\	.	8cc\L	.
.	.	.	8G/J	.	.	.	8b\J)	.
!	!	!	!LO:LB:g=original	!	!	!	!	!
=43	=43	=43	=43	=43	=43	=43	=43	=43
2D/	.	.	2F#X/	.	2d\	ven-	2a\	ven-
2GG/	-tris	.	2d\	-tris	2g\	-tris	2b\	-tris
!LO:LB:g=original	!	!	!	!	!LO:LB:g=original	!	!	!
=44	=44	=44	=44	=44	=44	=44	=44	=44
1D	tu-	.	1d	tu-	2g\	tu-	1a	tu-
.	.	.	.	.	2f#X\	.	.	.
!	!	!	!	!	!	!	!LO:LB:g=original	!
=45	=45	=45	=45	=45	=45	=45	=45	=45
4GG/	-i	.	4d\	-i	2g\	-i	4b\	-i
4G\	et	.	4d\	et	.	.	4b\	et
4A\	be-	.	4c\	be-	4fn\	be-	4cc\	be-
4B\	-ne-	.	8B\L	-ne-	4f\	-ne-	4dd\	-ne-
.	.	.	8A\J	.	.	.	.	.
=46	=46	=46	=46	=46	=46	=46	=46	=46
2.c\	-di-	.	2G/	-dic-	2.e\	-di-	2ee\	-di-
.	.	.	(<4G/	-tus	.	.	(>4ee\	-ctus
4G\	-ctus	.	4B/)	.	4g\	-ctus	4b\)	.
=47	=47	=47	=47	=47	=47	=47	=47	=47
2A\	fru-	.	2A/	fru-	[>1f	fru-	2cc\	fru-
2B\	-ctus	.	2G/	-ctus	.	.	2dd\	-ctus
=48	=48	=48	=48	=48	=48	=48	=48	=48
[>1c	ven-	.	2G/	fru-	2f\]	.	1ee	ven-
.	.	.	2c\	-ctus	2e\	-ctus	.	.
=49	=49	=49	=49	=49	=49	=49	=49	=49
4c\]	.	.	4e\	ven-	4g\	ven-	4ee\	.
8B-X\L	.	.	4f\	.	4a\	.	8dd\L	.
8A\J	.	.	.	.	.	.	8cc\J	.
!	!	!	!	!	!	!	!LO:SIC:v:s=4b-	!
4G\	.	.	4g\	.	4b-X\	.	4b\	.
4A\	.	.	8f\L	.	8a\L	.	4cc\	.
.	.	.	8e\J	.	8g\J	.	.	.
=50	=50	=50	=50	=50	=50	=50	=50	=50
4B-X\	.	.	4d\	.	4f\	.	4dd\	.
8A\L	.	.	4e\	.	4g\	.	8cc\L	.
!	!	!	!	!	!	!	!LO:SIC:v:s=8b-	!
8G\J	.	.	.	.	.	.	8b\J	.
4F\	.	.	4f\	.	4a\	.	4a\	.
!	!	!	!	!	!	!	!LO:SIC:v:s=4b-	!
4G\	.	.	8e\L	.	8g\L	.	4b\	.
.	.	.	8d\J	.	8f\J	.	.	.
!	!	!	!LO:LB:g=original	!	!LO:LB:g=original	!	!LO:LB:g=original	!
=51	=51	=51	=51	=51	=51	=51	=51	=51
4A\	.	.	4c\	.	4e\	.	4cc\	.
!	!	!	!	!	!	!	!LO:SIC:v:s=8b-	!
8G\L	.	.	4d\	.	4f\	.	8b\L	.
8F\J	.	.	.	.	.	.	8a\J	.
4E\	.	.	4e\	.	4g\	.	4g\	.
4F\	.	.	8d\L	.	8f\L	.	4a\	.
.	.	.	8c\J	.	8e\J	.	.	.
!LO:LB:g=original	!	!	!	!	!	!	!	!
=52	=52	=52	=52	=52	=52	=52	=52	=52
2G\	.	.	2B\	.	2d\	.	2b\	.
2C/	-tris	.	4c\	.	2e\	-tris	2cc\	-tris
.	.	.	4G/	-tris	.	.	.	.
=53	=53	=53	=53	=53	=53	=53	=53	=53
1G	tu-	.	1B	tu-	1g	tu-	1dd	tu-
=54	=54	=54	=54	=54	=54	=54	=54	=54
1A	-i	.	1d	-i	[>1f#X	-i	2cc\	-i
.	.	.	.	.	.	.	[>2cc\	al-
=55	=55	=55	=55	=55	=55	=55	=55	=55
1A	ven-	.	1d	ven-	1f#X]	.	2cc\]	-le-
.	.	.	.	.	.	.	2cc\	-lu-
=56	=56	=56	=56	=56	=56	=56	=56	=56
1G	-tris	.	1G	-tris	2d\	ven-	2b\	-ja
.	.	.	.	.	2e\	-tris	2cc\	al-
=57	=57	=57	=57	=57	=57	=57	=57	=57
1G	tu-	.	1G	tu-	1d	tu-	2cc\	-le-
.	.	.	.	.	.	.	2b\	-lu-
=58	=58	=58	=58	=58	=58	=58	=58	=58
!LO:TX:t=P:problem:w źródle ta adnotacja zapisana za taktem 58, na pięciolinii	!	!	!LO:TX:t=P:problem:w źródle ta adnotacja zapisana za taktem 58, na pięciolinii	!	!LO:TX:t=P:problem:w źródle ta adnotacja zapisana na pustej pięciolinii pod ostatnią zapisaną pięciolinią	!	!LO:TX:t=P:problem:w źródle ta adnotacja zapisana za taktem 58, na pięciolinii	!
!	!	!	!	!	!	!	!LO:TX:b:i:t=Alleluia\nD&colon; Capo.	!
!LO:TX:b:i:t=Alleluia Da Capo.	!	!	!LO:TX:b:i:t=Alleluia Da Capo.	!	!LO:TX:b:i:t=Alleluia Da Capo.	!	!LO:N:vis=0	!
1C	-i.	.	1G	-i	1e	-i.	1cc	-ja.
==	==	==	==	==	==	==	==	==
*-	*-	*-	*-	*-	*-	*-	*-	*-
!!!system-decoration: [(s1,s2,s3,s4)]
!!!RDF**kern: > = above
!!!RDF**kern: < = below
!!!ENC: Andrzej Kubiczek
!!!END: 2021-01-28
!!!EED: Antoni Szymański
!!!EST: 2021-02-03
